src/assets/duotone/Smileys.svg

<?xml version="1.0" encoding="UTF-8"?>
<svg width="24" height="24" viewBox="0 0 24 24" xmlns="http://www.w3.org/2000/svg">
 <path d="m14 5v5h-1c-1.65 0-3 1.35-3 3v1h-5c-1.66 0-3-1.34-3-3v-6c0-1.66 1.34-3 3-3h6c1.66 0 3 1.34 3 3z" opacity=".4"/>
 <path d="m5.2 6.6296c-0.23 0-0.47-0.11-0.61-0.32-0.24-0.34-0.16-0.80999 0.18-1.05 0.78-0.55 1.83-0.56002 2.62-0.02002 0.34 0.23 0.43 0.70004 0.2 1.04s-0.7 0.42995-1.04 0.19995c-0.27-0.18-0.62999-0.17999-0.89999 0.01001-0.15 0.1-0.30001 0.14001-0.45001 0.14001z"/>
 <path d="m9.2 6.6296c-0.23 0-0.47-0.11-0.61-0.32-0.24-0.34-0.16-0.80999 0.18-1.05 0.78-0.55 1.83-0.56002 2.62-0.02002 0.34 0.23 0.43 0.70004 0.2 1.04s-0.7 0.42995-1.04 0.19995c-0.27-0.18-0.62999-0.17999-0.89999 0.01001-0.15 0.1-0.30001 0.14001-0.45001 0.14001z"/>
 <path d="m8.1598 12.17h-2.32c-0.71 0-1.29-0.58-1.29-1.29 0-1.9 1.55-3.45 3.45-3.45 0.78 0 1.55 0.27001 2.16 0.76001 0.32 0.26 0.38 0.72999 0.12 1.05-0.26 0.31999-0.72999 0.37999-1.05 0.11999-0.34999-0.28-0.77-0.42999-1.22-0.42999-1 0-1.83 0.75999-1.94 1.74h2.1c0.41 0 0.75 0.34 0.75 0.75s-0.34999 0.75-0.75999 0.75z"/>
 <path d="m18.22 16.68c-0.07-0.08-0.17-0.12-0.28-0.12h-3.88c-0.11 0-0.21 0.04-0.28 0.12s-0.11 0.1899-0.09 0.2899c0.13 1.18 1.12 2.0801 2.31 2.0801s2.18-0.8901 2.31-2.0801c0.01-0.11-0.02-0.2099-0.09-0.2899z"/>
 <path d="m19 10h-6c-1.65 0-3 1.35-3 3v6c0 1.65 1.35 3 3 3h6c1.65 0 3-1.35 3-3v-6c0-1.65-1.35-3-3-3zm-6.41 3.17c0.24-0.34 0.71-0.42 1.05-0.18 0.27 0.19 0.63 0.19 0.9 0.01 0.34-0.24 0.81-0.15 1.04 0.2 0.23 0.34 0.15 0.81-0.2 1.04-0.39 0.26-0.84 0.4-1.29 0.4-0.47 0-0.93-0.14-1.32-0.42-0.34-0.25-0.42-0.72-0.18-1.05zm3.41 7c-1.9 0-3.45-1.55-3.45-3.45 0-0.71 0.58-1.29 1.29-1.29h4.32c0.71 0 1.29 0.58 1.29 1.29 0 1.9-1.55 3.45-3.45 3.45zm3.38-5.94c-0.39 0.26-0.84 0.4-1.29 0.4-0.47 0-0.93-0.14-1.32-0.42-0.34-0.24-0.42-0.71-0.18-1.05s0.71-0.42 1.05-0.18c0.27 0.19 0.63 0.19 0.9 0.01 0.34-0.24 0.81-0.15 1.04 0.2s0.14 0.81-0.2 1.04z"/>
</svg>

<svg width="24" height="24" viewBox="0 0 24 24"  xmlns="http://www.w3.org/2000/svg">
<path opacity="0.4" d="M14 5V10H13C11.35 10 10 11.35 10 13V14H5C3.34 14 2 12.66 2 11V5C2 3.34 3.34 2 5 2H11C12.66 2 14 3.34 14 5Z" />
<path d="M5.2 6.62965C4.97 6.62965 4.73 6.51965 4.59 6.30965C4.35 5.96965 4.43 5.49966 4.77 5.25966C5.55 4.70966 6.6 4.69964 7.39 5.23964C7.73 5.46964 7.82 5.93968 7.59 6.27968C7.36 6.61968 6.89 6.70963 6.55 6.47963C6.28 6.29963 5.92001 6.29964 5.65001 6.48964C5.50001 6.58964 5.35 6.62965 5.2 6.62965Z" />
<path d="M9.2 6.62965C8.97 6.62965 8.73 6.51965 8.59 6.30965C8.35 5.96965 8.43 5.49966 8.77 5.25966C9.55 4.70966 10.6 4.69964 11.39 5.23964C11.73 5.46964 11.82 5.93968 11.59 6.27968C11.36 6.61968 10.89 6.70963 10.55 6.47963C10.28 6.29963 9.92001 6.29964 9.65001 6.48964C9.50001 6.58964 9.35 6.62965 9.2 6.62965Z" />
<path d="M8.15981 12.1697H5.83981C5.12981 12.1697 4.5498 11.5897 4.5498 10.8797C4.5498 8.9797 6.09981 7.42969 7.99981 7.42969C8.77981 7.42969 9.54981 7.6997 10.1598 8.1897C10.4798 8.4497 10.5398 8.91969 10.2798 9.23969C10.0198 9.55968 9.54981 9.61968 9.2298 9.35968C8.87981 9.07968 8.4598 8.92969 8.0098 8.92969C7.0098 8.92969 6.17981 9.68968 6.06981 10.6697H8.1698C8.5798 10.6697 8.9198 11.0097 8.9198 11.4197C8.9198 11.8297 8.56981 12.1697 8.15981 12.1697Z" />
<path d="M18.2202 16.6796C18.1502 16.5996 18.0502 16.5596 17.9402 16.5596H14.0602C13.9502 16.5596 13.8502 16.5996 13.7802 16.6796C13.7102 16.7596 13.6702 16.8695 13.6902 16.9695C13.8202 18.1495 14.8102 19.0496 16.0002 19.0496C17.1902 19.0496 18.1802 18.1595 18.3102 16.9695C18.3202 16.8595 18.2902 16.7596 18.2202 16.6796Z" />
<path d="M19 10H13C11.35 10 10 11.35 10 13V19C10 20.65 11.35 22 13 22H19C20.65 22 22 20.65 22 19V13C22 11.35 20.65 10 19 10ZM12.59 13.17C12.83 12.83 13.3 12.75 13.64 12.99C13.91 13.18 14.27 13.18 14.54 13C14.88 12.76 15.35 12.85 15.58 13.2C15.81 13.54 15.73 14.01 15.38 14.24C14.99 14.5 14.54 14.64 14.09 14.64C13.62 14.64 13.16 14.5 12.77 14.22C12.43 13.97 12.35 13.5 12.59 13.17ZM16 20.17C14.1 20.17 12.55 18.62 12.55 16.72C12.55 16.01 13.13 15.43 13.84 15.43H18.16C18.87 15.43 19.45 16.01 19.45 16.72C19.45 18.62 17.9 20.17 16 20.17ZM19.38 14.23C18.99 14.49 18.54 14.63 18.09 14.63C17.62 14.63 17.16 14.49 16.77 14.21C16.43 13.97 16.35 13.5 16.59 13.16C16.83 12.82 17.3 12.74 17.64 12.98C17.91 13.17 18.27 13.17 18.54 12.99C18.88 12.75 19.35 12.84 19.58 13.19C19.81 13.54 19.72 14 19.38 14.23Z" />
</svg>
